X:147 
T:Miller's Maid (reel), The 
B:CRE3.198	(CailÃÂÃÂÃÂÃÂ­n an Mhuilleora)
F:file ID: cre.3/147mill_m
N:This is a version of "Flags of Dublin" (webABC file ID mvbt2/068flags)
R:reel
L:1/8
Q:180
M:C
K:D
ADFA BcdB|ADFA BEE2|ADFA Bcdf|1 (3gfe ce dcdB:|2 (3gfe ce d2||
(3|:ABc|dcdf e3g|f3e dcBA|dcdf e^deg|fdBc d2 (3ABc|
d2df .e.eeg|.f.ffe dcBA|GBBA Bcdf|1 (3gfe ce d2:|2 (3gfe ce d4 |]

%%%

